assets/illustrations/default/accessibility-4.svg

<svg xmlns="http://www.w3.org/2000/svg" width="1080" height="1081" fill="none"><g clip-path="url(#a)"><path fill="#F5F5F5" d="M890 432.514c110.46 0 200-89.543 200-200s-89.54-200-200-200c-110.457 0-200 89.543-200 200s89.543 200 200 200"/><path fill="#C5D9FB" d="M402.5 764.514c204.622 0 370.5-165.879 370.5-370.5 0-204.622-165.878-370.5-370.5-370.5S32 189.392 32 394.014c0 204.621 165.878 370.5 370.5 370.5"/><path fill="url(#b)" d="M153.991 132.514h326.135c7.695 0 13.991 6.3 13.991 14v23.94h23.925c11.473 0 17.349 14 9.094 22.12l-33.019 33.04v123.9c0 7.7-6.296 14-13.991 14H153.991c-7.695 0-13.991-6.3-13.991-14v-203c0-7.7 6.156-14 13.991-14"/><path fill="#E7C539" d="M595.563 358.028c34.239 0 61.995-27.757 61.995-61.996s-27.756-61.996-61.995-61.996c-34.24 0-61.996 27.757-61.996 61.996s27.756 61.996 61.996 61.996"/><path fill="#E7C539" d="M453.066 504.718 637.271 340.97l-82.236-92.509-184.204 163.748z"/><path fill="url(#c)" d="m587.731 386.088 16.098-79.833-111.592 164.452z"/><path fill="url(#d)" d="m431.764 360.421 14.573 53.512 32.848-95.495z"/><path fill="#C5D9FB" d="M469.613 614.279h-10.877v415.911h10.877z"/><path fill="#C5D9FB" d="M672.135 816.797H256.219v10.876h415.916z"/><path fill="#C5D9FB" d="M607.097 671.426 313.002 965.521l7.691 7.69 294.094-294.094z"/><path fill="#C5D9FB" d="m320.693 671.427-7.691 7.691 294.094 294.094 7.691-7.691z"/><path fill="#072F73" d="M464.176 1051.95c-126.602 0-229.71-103.111-229.71-229.713s103.108-229.711 229.71-229.711c126.601 0 229.711 103.109 229.711 229.711S590.995 1051.95 464.176 1051.95m0-415.918c-102.674 0-186.204 83.532-186.204 186.205s83.53 186.203 186.204 186.203c102.673 0 186.206-83.529 186.206-186.203 0-102.673-83.533-186.205-186.206-186.205"/><path fill="#072F73" d="m597.03 722.635-65.891 290.625 21.214 4.81 65.891-290.626z"/><path fill="#C5D9FB" d="M1029.53 426.116c10.81 0 19.58-8.765 19.58-19.577s-8.77-19.578-19.58-19.578-19.58 8.765-19.58 19.578 8.77 19.577 19.58 19.577"/><path fill="#C5D9FB" d="M1029.53 386.745H926.205v39.373h103.325z"/><path fill="#0C4EC0" d="M692.145 387.833h305.411l-85.272 343.478H606.875z"/><path fill="#141414" d="M592.081 259.708h163.801c6.091 0 10.876-4.786 10.876-10.877l.434-121.816c0-6.091-4.786-10.876-10.877-10.876H592.517c-6.091 0-10.877 4.785-10.877 10.876l-.435 121.816c0 6.091 4.785 10.877 10.876 10.877"/><path fill="#141414" d="M614.052 125.491h63.084V50.009h-63.084c-6.091 0-10.876 4.785-10.876 10.876v53.729c0 6.091 5.003 10.877 10.876 10.877"/><path fill="#8C3A03" d="m650.814 21.731 110.94-1.305 8.484 8.483 2.392 208.828-82.006.87-.436-33.499-37.415.435c-3.263-3.263-5.222-5.004-8.485-8.484l-1.74-166.844z"/><path fill="#141414" d="M657.774 159.208c-.652 0-1.304-.435-1.739-.87-.435-.653-.435-1.305-.217-1.958l18.271-43.071c.435-1.088 1.74-1.523 2.828-1.088s1.522 1.741 1.087 2.829l-16.967 39.807 17.186-.217c1.088 0 2.175.87 2.175 2.175s-.87 2.175-2.175 2.175zM750.007 114.179l-71.568-78.31-35.457 50.466-.652-55.905 8.482-8.7 110.94-1.088 8.701 8.265.871 85.272z"/><path fill="url(#e)" d="M685.186 557.938H402.615c-40.461 0-73.308 32.847-73.308 73.307v.653l-53.511 316.07h146.613l42.418-250.811h188.817a73.9 73.9 0 0 0 31.758 7.178c40.461 0 73.308-32.847 73.308-73.308-.217-40.242-33.064-73.089-73.524-73.089"/><path fill="#0C4EC0" d="M912.285 731.31H564.458v-34.152H920.77z"/><path fill="url(#f)" d="M412.403 947.97H298.2c-1.522 6.961-23.274 29.366-50.248 31.106-51.337 3.48-30.673 28.064-30.673 28.064h188.163z"/><path fill="#072F73" d="M522.472 947.97H408.269c-1.523 6.961-23.274 29.366-50.465 31.106-51.337 3.48-30.673 28.064-30.673 28.064h188.163z"/><path fill="#0096FA" d="M387.387 947.968h146.615l51.772-316.07H439.158z"/><path fill="#0096FA" d="M512.467 704.553c40.486 0 73.308-32.821 73.308-73.308 0-40.486-32.822-73.307-73.308-73.307s-73.308 32.821-73.308 73.307 32.821 73.308 73.308 73.308M795.036 697.376c40.486 0 73.305-32.82 73.305-73.307 0-40.486-32.819-73.307-73.305-73.307s-73.308 32.821-73.308 73.307 32.821 73.307 73.308 73.307"/><path fill="#0096FA" d="M795.037 557.938H512.466v139.219h282.571z"/><path fill="#0096FA" d="m867.475 636.032 5.873-90.056H772.197z"/><path fill="url(#g)" d="M630.583 557.938h236.671l16.969-284.093-20.884-42.2-244.72 1.522-34.152 169.238z"/><path fill="#C5D9FB" d="M752.4 614.279h-10.877v415.911H752.4z"/><path fill="#C5D9FB" d="M954.922 816.797H539.006v10.876h415.916z"/><path fill="#C5D9FB" d="M889.861 671.376 595.767 965.47l7.69 7.69 294.094-294.094z"/><path fill="#C5D9FB" d="m603.453 671.332-7.691 7.69 294.094 294.094 7.69-7.691z"/><path fill="#072F73" d="M746.963 1051.95c-126.602 0-229.71-103.111-229.71-229.713s103.108-229.711 229.71-229.711 229.712 103.109 229.712 229.711-103.11 229.713-229.712 229.713m0-415.918c-102.674 0-186.204 83.532-186.204 186.205s83.53 186.203 186.204 186.203c102.673 0 186.206-83.529 186.206-186.203 0-102.673-83.533-186.205-186.206-186.205"/><path fill="#C5D9FB" d="M937.736 569.032H606.875v34.153h330.861z"/><path fill="#E7C539" d="M1016.91 487.895c34.84 0 63.09-28.243 63.09-63.083s-28.25-63.083-63.09-63.083c-34.836 0-63.079 28.243-63.079 63.083s28.243 63.083 63.079 63.083M861.599 357.813c34.84 0 63.083-28.243 63.083-63.083s-28.243-63.084-63.083-63.084-63.083 28.244-63.083 63.084 28.243 63.083 63.083 63.083"/><path fill="#E7C539" d="m970.629 469.311 80.851-96.299-150.116-126.024-80.846 96.299z"/><path fill="#E7C539" d="m873.703 584.061 113.864 53.336 87.753-187.341-113.863-53.336z"/><path fill="url(#h)" d="M690.188 205.326h35.24l-35.024 19.796z"/><path fill="#141414" d="M851.375 259.707h-84.618c-6.091 0-10.876-4.785-10.876-10.876V124.839c0-6.09 4.785-10.876 10.876-10.876h84.618c6.091 0 10.876 4.786 10.876 10.876v123.992c0 6.091-4.785 10.876-10.876 10.876"/><path fill="#141414" d="M812.439 125.491H765.67c-6.091 0-10.877-4.786-10.877-10.877V60.885c0-6.09 4.786-10.876 10.877-10.876h46.769c6.09 0 10.876 4.785 10.876 10.876v53.729c0 6.091-5.003 10.877-10.876 10.877"/><path fill="#8C3A03" d="M736.956 157.031h37.848c4.786 0 8.485-3.915 8.485-8.483v-34.369h-46.333z"/><path fill="#141414" d="m679.311 259.273-87.23.435c-6.091 0-10.876-4.785-10.876-10.876V216.42c0-6.09 4.785-10.876 10.876-10.876l98.107-.436v43.288c0 6.091-4.786 10.877-10.877 10.877"/><path fill="#0C4EC0" d="M576.637 1007.14H189v34.15h387.637z"/><path fill="#8C3A03" d="m869.648 735.661 13.052-44.158-38.72 46.116-10.007-4.785 29.366-49.162-56.774 44.158-8.485-8.483 48.509-53.295-52.424 28.932-7.396-9.572 73.743-62.43-18.055-11.095 39.591-11.964 8.918-6.308 67.434 31.542-52.424 68.304-26.103 45.899zM240.873 189.153l35.24 29.802-26.539-53.947 8.268-7.397 33.282 46.552-17.838-69.393 11.312-4.567 29.366 65.911-5.438-59.82 11.745-2.611 27.627 92.885 19.142-33.281 9.137 1.957-16.967 68.522 6.961 22.187-73.524 24.146-27.627-70.697-31.541-42.2z"/><path fill="#E7C539" d="M397.494 531.98c34.239 0 61.996-27.757 61.996-61.996s-27.757-61.996-61.996-61.996-61.996 27.757-61.996 61.996 27.756 61.996 61.996 61.996"/><path fill="#E7C539" d="M459.399 456.019 374.1 268.018l-112.721 51.143 85.299 188.001z"/></g><defs><linearGradient id="b" x1="142.512" x2="967.134" y1="117.352" y2="340.016" gradientUnits="userSpaceOnUse"><stop offset=".186" stop-color="#F5F5F5"/><stop offset=".826" stop-color="#C5D9FB"/></linearGradient><linearGradient id="c" x1="549.627" x2="588.912" y1="390.369" y2="412.728" gradientUnits="userSpaceOnUse"><stop offset=".061" stop-color="#E7C539"/><stop offset="1" stop-color="#DDA22C"/></linearGradient><linearGradient id="d" x1="474.249" x2="400.682" y1="364.452" y2="370.5" gradientUnits="userSpaceOnUse"><stop offset=".133" stop-color="#E7C539"/><stop offset="1" stop-color="#DDA22C"/></linearGradient><linearGradient id="e" x1="294.492" x2="691.204" y1="613.549" y2="893.492" gradientUnits="userSpaceOnUse"><stop offset=".026" stop-color="#0096FA"/><stop offset=".641" stop-color="#1968F0"/></linearGradient><linearGradient id="f" x1="262.039" x2="391.412" y1="926.626" y2="1051.56" gradientUnits="userSpaceOnUse"><stop offset=".26" stop-color="#072F73"/><stop offset=".366" stop-color="#072C6D"/><stop offset=".513" stop-color="#06255B"/><stop offset=".684" stop-color="#04193D"/><stop offset=".871" stop-color="#010915"/><stop offset=".956"/></linearGradient><linearGradient id="g" x1="674.333" x2="1039.1" y1="329.987" y2="655.942" gradientUnits="userSpaceOnUse"><stop offset=".161" stop-color="#E7C539"/><stop offset="1" stop-color="#DDA22C"/></linearGradient><linearGradient id="h" x1="715" x2="698.422" y1="232.014" y2="181.414" gradientUnits="userSpaceOnUse"><stop offset=".175" stop-color="#8C3A03"/><stop offset=".821" stop-color="#431B00"/></linearGradient><clipPath id="a"><path fill="#fff" d="M0 .514h1080v1080H0z"/></clipPath></defs></svg>

<svg width="1080" height="1081" viewBox="0 0 1080 1081" fill="none" xmlns="http://www.w3.org/2000/svg">
<g clip-path="url(#clip0_18735_2465)">
<path d="M890 432.514C1000.46 432.514 1090 342.971 1090 232.514C1090 122.057 1000.46 32.5137 890 32.5137C779.543 32.5137 690 122.057 690 232.514C690 342.971 779.543 432.514 890 432.514Z" fill="#F5F5F5"/>
<path d="M402.5 764.514C607.122 764.514 773 598.635 773 394.014C773 189.392 607.122 23.5137 402.5 23.5137C197.878 23.5137 32 189.392 32 394.014C32 598.635 197.878 764.514 402.5 764.514Z" fill="#C5D9FB"/>
<path d="M153.991 132.514H480.126C487.821 132.514 494.117 138.814 494.117 146.514V170.454H518.042C529.515 170.454 535.391 184.454 527.136 192.574L494.117 225.614V349.514C494.117 357.214 487.821 363.514 480.126 363.514H153.991C146.296 363.514 140 357.214 140 349.514V146.514C140 138.814 146.156 132.514 153.991 132.514Z" fill="url(#paint0_linear_18735_2465)"/>
<path d="M595.563 358.028C629.802 358.028 657.558 330.271 657.558 296.032C657.558 261.793 629.802 234.036 595.563 234.036C561.323 234.036 533.567 261.793 533.567 296.032C533.567 330.271 561.323 358.028 595.563 358.028Z" fill="#E7C539"/>
<path d="M453.066 504.718L637.271 340.97L555.035 248.461L370.831 412.209L453.066 504.718Z" fill="#E7C539"/>
<path d="M587.731 386.088L603.829 306.255L492.237 470.707L587.731 386.088Z" fill="url(#paint1_linear_18735_2465)"/>
<path d="M431.764 360.421L446.337 413.933L479.185 318.438L431.764 360.421Z" fill="url(#paint2_linear_18735_2465)"/>
<path d="M469.613 614.279H458.736V1030.19H469.613V614.279Z" fill="#C5D9FB"/>
<path d="M672.135 816.797H256.219V827.673H672.135V816.797Z" fill="#C5D9FB"/>
<path d="M607.097 671.426L313.002 965.521L320.693 973.211L614.787 679.117L607.097 671.426Z" fill="#C5D9FB"/>
<path d="M320.693 671.427L313.002 679.118L607.096 973.211L614.787 965.521L320.693 671.427Z" fill="#C5D9FB"/>
<path d="M464.176 1051.95C337.574 1051.95 234.466 948.839 234.466 822.237C234.466 695.635 337.574 592.526 464.176 592.526C590.777 592.526 693.887 695.635 693.887 822.237C693.887 948.839 590.995 1051.95 464.176 1051.95ZM464.176 636.032C361.502 636.032 277.972 719.564 277.972 822.237C277.972 924.911 361.502 1008.44 464.176 1008.44C566.849 1008.44 650.382 924.911 650.382 822.237C650.382 719.564 566.849 636.032 464.176 636.032Z" fill="#072F73"/>
<path d="M597.03 722.635L531.139 1013.26L552.353 1018.07L618.244 727.444L597.03 722.635Z" fill="#072F73"/>
<path d="M1029.53 426.116C1040.34 426.116 1049.11 417.351 1049.11 406.539C1049.11 395.726 1040.34 386.961 1029.53 386.961C1018.72 386.961 1009.95 395.726 1009.95 406.539C1009.95 417.351 1018.72 426.116 1029.53 426.116Z" fill="#C5D9FB"/>
<path d="M1029.53 386.745H926.205V426.118H1029.53V386.745Z" fill="#C5D9FB"/>
<path d="M692.145 387.833H997.556L912.284 731.311H606.875L692.145 387.833Z" fill="#0C4EC0"/>
<path d="M592.081 259.708H755.882C761.973 259.708 766.758 254.922 766.758 248.831L767.192 127.015C767.192 120.924 762.406 116.139 756.315 116.139H592.517C586.426 116.139 581.64 120.924 581.64 127.015L581.205 248.831C581.205 254.922 585.99 259.708 592.081 259.708Z" fill="#141414"/>
<path d="M614.052 125.491H677.136V50.0088H614.052C607.961 50.0088 603.176 54.7944 603.176 60.8852V114.614C603.176 120.705 608.179 125.491 614.052 125.491Z" fill="#141414"/>
<path d="M650.814 21.7312L761.754 20.4258L770.238 28.9092L772.63 237.737L690.624 238.607L690.188 205.108L652.773 205.543C649.51 202.28 647.551 200.539 644.288 197.059L642.548 30.2146L650.814 21.7312Z" fill="#8C3A03"/>
<path d="M657.774 159.208C657.122 159.208 656.47 158.773 656.035 158.338C655.6 157.685 655.6 157.033 655.818 156.38L674.089 113.309C674.524 112.221 675.829 111.786 676.917 112.221C678.004 112.656 678.439 113.962 678.004 115.05L661.037 154.857L678.223 154.64C679.311 154.64 680.398 155.51 680.398 156.815C680.398 158.12 679.528 158.99 678.223 158.99L657.774 159.208Z" fill="#141414"/>
<path d="M750.007 114.179L678.439 35.8686L642.982 86.3347L642.33 30.4304L650.812 21.7292L761.752 20.6416L770.453 28.9073L771.324 114.179H750.007Z" fill="#141414"/>
<path d="M685.186 557.938H402.615C362.154 557.938 329.307 590.785 329.307 631.245C329.307 631.463 329.307 631.681 329.307 631.898L275.796 947.968H422.409L464.827 697.157H653.644C663.215 701.725 674.091 704.335 685.403 704.335C725.863 704.335 758.71 671.488 758.71 631.027C758.493 590.785 725.646 557.938 685.186 557.938Z" fill="url(#paint3_linear_18735_2465)"/>
<path d="M912.285 731.31H564.458V697.158H920.77L912.285 731.31Z" fill="#0C4EC0"/>
<path d="M412.403 947.97H298.2C296.678 954.931 274.926 977.336 247.952 979.076C196.615 982.556 217.279 1007.14 217.279 1007.14H405.442L412.403 947.97Z" fill="url(#paint4_linear_18735_2465)"/>
<path d="M522.472 947.97H408.269C406.746 954.931 384.995 977.336 357.804 979.076C306.467 982.556 327.131 1007.14 327.131 1007.14H515.294L522.472 947.97Z" fill="#072F73"/>
<path d="M387.387 947.968H534.002L585.774 631.898H439.158L387.387 947.968Z" fill="#0096FA"/>
<path d="M512.467 704.553C552.953 704.553 585.775 671.732 585.775 631.245C585.775 590.759 552.953 557.938 512.467 557.938C471.98 557.938 439.159 590.759 439.159 631.245C439.159 671.732 471.98 704.553 512.467 704.553Z" fill="#0096FA"/>
<path d="M795.036 697.376C835.522 697.376 868.341 664.556 868.341 624.069C868.341 583.583 835.522 550.762 795.036 550.762C754.549 550.762 721.728 583.583 721.728 624.069C721.728 664.556 754.549 697.376 795.036 697.376Z" fill="#0096FA"/>
<path d="M795.037 557.938H512.466V697.157H795.037V557.938Z" fill="#0096FA"/>
<path d="M867.475 636.032L873.348 545.976H772.197L867.475 636.032Z" fill="#0096FA"/>
<path d="M630.583 557.938H867.254L884.223 273.845L863.339 231.645L618.619 233.167L584.467 402.405L630.583 557.938Z" fill="url(#paint5_linear_18735_2465)"/>
<path d="M752.4 614.279H741.523V1030.19H752.4V614.279Z" fill="#C5D9FB"/>
<path d="M954.922 816.797H539.006V827.673H954.922V816.797Z" fill="#C5D9FB"/>
<path d="M889.861 671.376L595.767 965.47L603.457 973.16L897.551 679.066L889.861 671.376Z" fill="#C5D9FB"/>
<path d="M603.453 671.332L595.762 679.022L889.856 973.116L897.546 965.425L603.453 671.332Z" fill="#C5D9FB"/>
<path d="M746.963 1051.95C620.361 1051.95 517.253 948.839 517.253 822.237C517.253 695.635 620.361 592.526 746.963 592.526C873.565 592.526 976.675 695.635 976.675 822.237C976.675 948.839 873.565 1051.95 746.963 1051.95ZM746.963 636.032C644.289 636.032 560.759 719.564 560.759 822.237C560.759 924.911 644.289 1008.44 746.963 1008.44C849.636 1008.44 933.169 924.911 933.169 822.237C933.169 719.564 849.636 636.032 746.963 636.032Z" fill="#072F73"/>
<path d="M937.736 569.032H606.875V603.185H937.736V569.032Z" fill="#C5D9FB"/>
<path d="M1016.91 487.895C1051.75 487.895 1080 459.652 1080 424.812C1080 389.972 1051.75 361.729 1016.91 361.729C982.074 361.729 953.831 389.972 953.831 424.812C953.831 459.652 982.074 487.895 1016.91 487.895Z" fill="#E7C539"/>
<path d="M861.599 357.813C896.439 357.813 924.682 329.57 924.682 294.73C924.682 259.89 896.439 231.646 861.599 231.646C826.759 231.646 798.516 259.89 798.516 294.73C798.516 329.57 826.759 357.813 861.599 357.813Z" fill="#E7C539"/>
<path d="M970.629 469.311L1051.48 373.012L901.364 246.988L820.518 343.287L970.629 469.311Z" fill="#E7C539"/>
<path d="M873.703 584.061L987.567 637.397L1075.32 450.056L961.457 396.72L873.703 584.061Z" fill="#E7C539"/>
<path d="M690.188 205.326H725.428L690.404 225.122L690.188 205.326Z" fill="url(#paint6_linear_18735_2465)"/>
<path d="M851.375 259.707H766.757C760.666 259.707 755.881 254.922 755.881 248.831V124.839C755.881 118.749 760.666 113.963 766.757 113.963H851.375C857.466 113.963 862.251 118.749 862.251 124.839V248.831C862.251 254.922 857.466 259.707 851.375 259.707Z" fill="#141414"/>
<path d="M812.439 125.491H765.67C759.579 125.491 754.793 120.705 754.793 114.614V60.8852C754.793 54.7944 759.579 50.0088 765.67 50.0088H812.439C818.529 50.0088 823.315 54.7944 823.315 60.8852V114.614C823.315 120.705 818.312 125.491 812.439 125.491Z" fill="#141414"/>
<path d="M736.956 157.031H774.804C779.59 157.031 783.289 153.116 783.289 148.548V114.179H736.956V157.031Z" fill="#8C3A03"/>
<path d="M679.311 259.273L592.081 259.708C585.99 259.708 581.205 254.923 581.205 248.832V216.42C581.205 210.33 585.99 205.544 592.081 205.544L690.188 205.108V248.396C690.188 254.487 685.402 259.273 679.311 259.273Z" fill="#141414"/>
<path d="M576.637 1007.14H189V1041.29H576.637V1007.14Z" fill="#0C4EC0"/>
<path d="M869.648 735.661L882.7 691.503L843.98 737.619L833.973 732.834L863.339 683.672L806.565 727.83L798.08 719.347L846.589 666.052L794.165 694.984L786.769 685.412L860.512 622.982L842.457 611.887L882.048 599.923L890.966 593.615L958.4 625.157L905.976 693.461L879.873 739.36L869.648 735.661Z" fill="#8C3A03"/>
<path d="M240.873 189.153L276.113 218.955L249.574 165.008L257.842 157.611L291.124 204.163L273.286 134.77L284.598 130.203L313.964 196.114L308.526 136.294L320.271 133.683L347.898 226.568L367.04 193.287L376.177 195.244L359.21 263.766L366.171 285.953L292.647 310.099L265.02 239.402L233.479 197.202L240.873 189.153Z" fill="#8C3A03"/>
<path d="M397.494 531.98C431.733 531.98 459.49 504.223 459.49 469.984C459.49 435.745 431.733 407.988 397.494 407.988C363.254 407.988 335.498 435.745 335.498 469.984C335.498 504.223 363.254 531.98 397.494 531.98Z" fill="#E7C539"/>
<path d="M459.399 456.019L374.1 268.018L261.379 319.161L346.678 507.162L459.399 456.019Z" fill="#E7C539"/>
</g>
<defs>
<linearGradient id="paint0_linear_18735_2465" x1="142.512" y1="117.352" x2="967.134" y2="340.016" gradientUnits="userSpaceOnUse">
<stop offset="0.185757" stop-color="#F5F5F5"/>
<stop offset="0.826394" stop-color="#C5D9FB"/>
</linearGradient>
<linearGradient id="paint1_linear_18735_2465" x1="549.627" y1="390.369" x2="588.912" y2="412.728" gradientUnits="userSpaceOnUse">
<stop offset="0.0610308" stop-color="#E7C539"/>
<stop offset="1" stop-color="#DDA22C"/>
</linearGradient>
<linearGradient id="paint2_linear_18735_2465" x1="474.249" y1="364.452" x2="400.682" y2="370.5" gradientUnits="userSpaceOnUse">
<stop offset="0.1329" stop-color="#E7C539"/>
<stop offset="1" stop-color="#DDA22C"/>
</linearGradient>
<linearGradient id="paint3_linear_18735_2465" x1="294.492" y1="613.549" x2="691.204" y2="893.492" gradientUnits="userSpaceOnUse">
<stop offset="0.0262009" stop-color="#0096FA"/>
<stop offset="0.641" stop-color="#1968F0"/>
</linearGradient>
<linearGradient id="paint4_linear_18735_2465" x1="262.039" y1="926.626" x2="391.412" y2="1051.56" gradientUnits="userSpaceOnUse">
<stop offset="0.2603" stop-color="#072F73"/>
<stop offset="0.3664" stop-color="#072C6D"/>
<stop offset="0.5132" stop-color="#06255B"/>
<stop offset="0.6836" stop-color="#04193D"/>
<stop offset="0.8706" stop-color="#010915"/>
<stop offset="0.9558"/>
</linearGradient>
<linearGradient id="paint5_linear_18735_2465" x1="674.333" y1="329.987" x2="1039.1" y2="655.942" gradientUnits="userSpaceOnUse">
<stop offset="0.1611" stop-color="#E7C539"/>
<stop offset="1" stop-color="#DDA22C"/>
</linearGradient>
<linearGradient id="paint6_linear_18735_2465" x1="715" y1="232.014" x2="698.422" y2="181.414" gradientUnits="userSpaceOnUse">
<stop offset="0.175341" stop-color="#8C3A03"/>
<stop offset="0.821186" stop-color="#431B00"/>
</linearGradient>
<clipPath id="clip0_18735_2465">
<rect width="1080" height="1080" fill="white" transform="translate(0 0.513672)"/>
</clipPath>
</defs>
</svg>
